svgs/sharp-light/up-from-dotted-line.svg

<svg xmlns="http://www.w3.org/2000/svg" viewBox="0 0 448 512"><!--! Font Awesome Pro 6.6.0 by @fontawesome - https://fontawesome.com License - https://fontawesome.com/license (Commercial License) Copyright 2024 Fonticons, Inc. --><path d="M176 240l0-32-32 0-48 0 0-17.7L224 75.1 352 190.3l0 17.7-48 0-32 0 0 32 0 112-96 0 0-112zM64 240l32 0 16 0 32 0 0 32 0 80 0 32 32 0 96 0 32 0 0-32 0-80 0-32 32 0 16 0 32 0 0-32 0-32L224 32 64 176l0 32 0 32zM56 424L8 424l0 48 48 0 0-48zm96 0l-48 0 0 48 48 0 0-48zm48 48l48 0 0-48-48 0 0 48zm144-48l-48 0 0 48 48 0 0-48zm48 0l0 48 48 0 0-48-48 0z"/></svg>

<svg xmlns="http://www.w3.org/2000/svg" viewBox="0 0 448 512"><!--! Font Awesome Pro 6.5.2 by @fontawesome - https://fontawesome.com License - https://fontawesome.com/license (Commercial License) Copyright 2024 Fonticons, Inc. --><path d="M176 240V208H144l-48 0V190.3L224 75.1 352 190.3l0 17.7-48 0H272v32V352H176l0-112zM64 240H96h16l32 0v32l0 80v32h32 96 32V352 272 240l32 0h16 32V208l0-32L224 32 64 176l0 32 0 32zM56 424H8v48H56V424zm96 0H104v48h48V424zm48 48h48V424H200v48zm144-48H296v48h48V424zm48 0v48h48V424H392z"/></svg>
